client/src/assets/images/build.svg

<svg xmlns="http://www.w3.org/2000/svg" height="24" width="24"><path d="m17.475 20.6-6.3-6.325q-.525.225-1.075.35-.55.125-1.15.125-2.4 0-4.075-1.675Q3.2 11.4 3.2 9q0-.775.188-1.487.187-.713.562-1.338l3.6 3.575L9.7 7.6 6.125 4.025q.65-.35 1.35-.563.7-.212 1.475-.212 2.375 0 4.063 1.675Q14.7 6.6 14.7 9q0 .625-.125 1.175t-.35 1.05l6.325 6.3q.25.275.25.65t-.25.625l-1.825 1.825q-.25.25-.612.25-.363 0-.638-.275Zm.65-1.5.9-.9-6.65-6.675Q12.8 11 13 10.337q.2-.662.2-1.337 0-1.675-1.187-2.95Q10.825 4.775 9 4.8l2.175 2.175q.25.275.263.625.012.35-.238.6l-3.025 3.025q-.275.275-.637.275-.363 0-.613-.275L4.75 9.05q0 1.925 1.287 3.063Q7.325 13.25 8.95 13.25q.65 0 1.3-.2t1.2-.6Zm0 0-6.675-6.65q-.55.4-1.2.6-.65.2-1.3.2-1.625 0-2.913-1.137Q4.75 10.975 4.75 9.05l2.175 2.175q.25.275.613.275.362 0 .637-.275L11.2 8.2q.25-.25.238-.6-.013-.35-.263-.625L9 4.8q1.825-.025 3.013 1.25Q13.2 7.325 13.2 9q0 .675-.2 1.337-.2.663-.625 1.188l6.65 6.675Z"/></svg>

<svg xmlns="http://www.w3.org/2000/svg" height="24" width="24"><path d="M17.475 20.6 11.175 14.275Q10.65 14.5 10.1 14.625Q9.55 14.75 8.95 14.75Q6.55 14.75 4.875 13.075Q3.2 11.4 3.2 9Q3.2 8.225 3.388 7.513Q3.575 6.8 3.95 6.175L7.55 9.75L9.7 7.6L6.125 4.025Q6.775 3.675 7.475 3.462Q8.175 3.25 8.95 3.25Q11.325 3.25 13.013 4.925Q14.7 6.6 14.7 9Q14.7 9.625 14.575 10.175Q14.45 10.725 14.225 11.225L20.55 17.525Q20.8 17.8 20.8 18.175Q20.8 18.55 20.55 18.8L18.725 20.625Q18.475 20.875 18.113 20.875Q17.75 20.875 17.475 20.6ZM18.125 19.1 19.025 18.2 12.375 11.525Q12.8 11 13 10.337Q13.2 9.675 13.2 9Q13.2 7.325 12.013 6.05Q10.825 4.775 9 4.8L11.175 6.975Q11.425 7.25 11.438 7.6Q11.45 7.95 11.2 8.2L8.175 11.225Q7.9 11.5 7.538 11.5Q7.175 11.5 6.925 11.225L4.75 9.05Q4.75 10.975 6.037 12.113Q7.325 13.25 8.95 13.25Q9.6 13.25 10.25 13.05Q10.9 12.85 11.45 12.45ZM11.8 11.85Q11.8 11.85 11.8 11.85Q11.8 11.85 11.8 11.85Q11.8 11.85 11.8 11.85Q11.8 11.85 11.8 11.85Q11.8 11.85 11.8 11.85Q11.8 11.85 11.8 11.85Q11.8 11.85 11.8 11.85Q11.8 11.85 11.8 11.85Q11.8 11.85 11.8 11.85Q11.8 11.85 11.8 11.85Q11.8 11.85 11.8 11.85Q11.8 11.85 11.8 11.85Z"/></svg>
